X:605
T: Mulhaire's
S: P.Reddan: "Knockanalban"
L: 1/8
M: 4/4
R: reel
K: F
FD|CFFE FGAc|f2cf dAcA|G2G^F GBAG|FAGE FEDF|
CFFE FGAc|f2cf dAcA|FGAc fdcB|1 AFGE F2 :|2\
AFGE FG||
AB|cffe f2Ac|fefg fdcf|dgg^f g2d=f|g2 gf dcAB|
cffe f2Ac|fefg fdcA|FGAc fdcB|1 AFGE F2 :|2\
AFGE F4||
